X:1
T:Grand Turk's March,aka. SenH.011 , The
T:Grand Turk's March,aka. SenH.011 , The
T:Count Brown's March,aka. SenH.011 Bodmin Riding March,aka. SenH.011 Untitled in MS
T:in Hand A
C:in Hand A
%%score ( 1 2 )
L:1/8
Q:1/4=130
M:4/4
K:C
V:1 treble 
V:2 treble 
V:1
 c2 cc c2 c2 | cBcd cdcd | e2 ee e2 e2 | edef efef | g2 gg g2 ag | f2 ff f2 gf | e2 ee egfe |1 %7
 dcBA GABG :|2 [GBd]4 [GBd]4 |: d2 dd d2 e2 | dcBA G2 ef | g2 gg g2 a2 | gfed c2 gf | efde c2 gf | %14
 efde c2 gf | egfe"^tr" d3 c | [EGc]4- [EGc]4 :| %17
V:2
 E2 EE E2 E2 | x8 | c2 cc c2 c2 | x8 | e2 ee e2 z2 | d2 dd d2 z2 | c2 cc z4 |1 x8 :|2 x8 |: %9
 B2 BB B2 z2 | x8 | e2 ee e2 z2 | x8 | x8 | x8 | x8 | x8 :| %17

